dataset/nicotine-plus/icon.svg

<?xml version="1.0" encoding="UTF-8" standalone="no"?>
<!-- Generator: Adobe Illustrator 23.0.1, SVG Export Plug-In . SVG Version: 6.00 Build 0)  -->

<svg
   version="1.1"
   id="Livello_1"
   x="0px"
   y="0px"
   viewBox="0 0 128 128"
   enable-background="new 0 0 240.1 240.1"
   xml:space="preserve"
   width="128"
   height="128"
   xmlns:xlink="http://www.w3.org/1999/xlink"
   xmlns="http://www.w3.org/2000/svg"
   xmlns:svg="http://www.w3.org/2000/svg"><defs
   id="defs13"><linearGradient
     id="linearGradient2"><stop
       style="stop-color:#ca7607;stop-opacity:1;"
       offset="0"
       id="stop2" /><stop
       style="stop-color:#fab357;stop-opacity:1;"
       offset="0.01452733"
       id="stop6" /><stop
       style="stop-color:#ca7607;stop-opacity:1;"
       offset="0.04190787"
       id="stop8" /><stop
       style="stop-color:#ca7607;stop-opacity:1;"
       offset="0.13634467"
       id="stop10" /><stop
       style="stop-color:#f9b358;stop-opacity:1;"
       offset="0.16699986"
       id="stop12" /><stop
       style="stop-color:#ca7607;stop-opacity:1;"
       offset="0.18185833"
       id="stop15" /><stop
       style="stop-color:#ca7607;stop-opacity:1;"
       offset="0.35843062"
       id="stop16" /><stop
       style="stop-color:#f9b358;stop-opacity:1;"
       offset="0.36951777"
       id="stop17" /><stop
       style="stop-color:#ca7607;stop-opacity:1;"
       offset="0.40157109"
       id="stop20" /><stop
       style="stop-color:#ca7607;stop-opacity:1;"
       offset="0.49329433"
       id="stop22" /><stop
       style="stop-color:#f9b358;stop-opacity:1;"
       offset="0.52430058"
       id="stop25" /><stop
       style="stop-color:#ca7607;stop-opacity:1;"
       offset="0.54589003"
       id="stop27" /><stop
       style="stop-color:#ca7607;stop-opacity:1;"
       offset="0.67657959"
       id="stop30" /><stop
       style="stop-color:#f9b358;stop-opacity:1;"
       offset="0.69091624"
       id="stop32" /><stop
       style="stop-color:#ca7607;stop-opacity:1;"
       offset="0.71876866"
       id="stop33" /><stop
       style="stop-color:#ca7607;stop-opacity:1;"
       offset="0.81108361"
       id="stop34" /><stop
       style="stop-color:#f9b358;stop-opacity:1;"
       offset="0.84438479"
       id="stop35" /><stop
       style="stop-color:#ca7607;stop-opacity:1;"
       offset="0.86117017"
       id="stop36" /><stop
       style="stop-color:#ca7607;stop-opacity:1;"
       offset="0.95636511"
       id="stop37" /><stop
       style="stop-color:#f9b458;stop-opacity:1;"
       offset="0.98616987"
       id="stop38" /><stop
       style="stop-color:#ca7607;stop-opacity:1;"
       offset="1"
       id="stop4" /></linearGradient><linearGradient
     xlink:href="#linearGradient2"
     id="linearGradient40"
     x1="137.34286"
     y1="64.142464"
     x2="249.34286"
     y2="64.142464"
     gradientUnits="userSpaceOnUse"
     gradientTransform="translate(-129.34286,1.85752)" /></defs>

<path
   fill="#f9aa40"
   d="M 8,20.000756 V 112.00003 A 4,3.9999685 0 0 0 12,116 h 12 a 4,3.9999685 0 0 0 4,-3.99997 v -75.9994 h 4 c 2.21,0 5.82,-0.081 7.972,0.397997 4.16,0.925992 6.704,3.469972 7.63,7.629939 0.48,2.151983 0.398,5.761955 0.398,7.971938 V 112.00003 A 4,3.9999685 0 0 0 52,116 h 12 a 4,3.9999685 0 0 0 4,-3.99997 v -11.99991 h 16 v 11.99991 A 4,3.9999685 0 0 0 88,116 h 12 a 4,3.9999685 0 0 0 4,-3.99997 v -11.99991 h 12 a 4,3.9999685 0 0 0 4,-3.999963 V 88.00022 a 4,3.9999685 0 0 0 -4,-3.999969 H 104 V 68.000377 a 4,3.9999685 0 0 0 -4,-3.999968 H 88 a 4,3.9999685 0 0 0 -4,3.999968 V 84.000251 H 68 V 52.000504 C 68,49.790521 68.023,46.201549 67.755,44.010567 66.138,30.793671 56.678,18.498768 43.981,16.336785 41.806,15.966788 38.21,16.000787 36,16.000787 H 12 a 4,3.9999685 0 0 0 -4,3.999969 z"
   id="path38"
   style="fill:url(#linearGradient40);stroke-width:0.999996" /><path
   fill="#f9aa40"
   d="M 8,16.000756 V 108.00003 A 4,3.9999685 0 0 0 12,112 h 12 a 4,3.9999685 0 0 0 4,-3.99997 v -75.9994 h 4 c 2.21,0 5.82,-0.081 7.972,0.397997 4.16,0.925992 6.704,3.469972 7.63,7.629939 0.48,2.151983 0.398,5.761955 0.398,7.971938 V 108.00003 A 4,3.9999685 0 0 0 52,112 h 12 a 4,3.9999685 0 0 0 4,-3.99997 V 96.000125 H 84 V 108.00003 A 4,3.9999685 0 0 0 88,112 h 12 a 4,3.9999685 0 0 0 4,-3.99997 V 96.000125 h 12 a 4,3.9999685 0 0 0 4,-3.999968 V 84.00022 a 4,3.9999685 0 0 0 -4,-3.999969 H 104 V 64.000377 a 4,3.9999685 0 0 0 -4,-3.999968 H 88 a 4,3.9999685 0 0 0 -4,3.999968 V 80.000251 H 68 V 48.000504 C 68,45.790521 68.023,42.201549 67.755,40.010567 66.138,26.793671 56.678,14.498768 43.981,12.336785 41.806,11.966788 38.21,12.000787 36,12.000787 H 12 a 4,3.9999685 0 0 0 -4,3.999969 z"
   id="path2"
   style="stroke-width:0.999996" /></svg>

<svg xmlns="http://www.w3.org/2000/svg" xmlns:xlink="http://www.w3.org/1999/xlink" xml:space="preserve" width="128" height="128" viewBox="0 0 128 128"><defs><linearGradient id="a"><stop offset="0" style="stop-color:#ca7607;stop-opacity:1"/><stop offset=".015" style="stop-color:#fab357;stop-opacity:1"/><stop offset=".042" style="stop-color:#ca7607;stop-opacity:1"/><stop offset=".136" style="stop-color:#ca7607;stop-opacity:1"/><stop offset=".167" style="stop-color:#f9b358;stop-opacity:1"/><stop offset=".182" style="stop-color:#ca7607;stop-opacity:1"/><stop offset=".358" style="stop-color:#ca7607;stop-opacity:1"/><stop offset=".37" style="stop-color:#f9b358;stop-opacity:1"/><stop offset=".402" style="stop-color:#ca7607;stop-opacity:1"/><stop offset=".493" style="stop-color:#ca7607;stop-opacity:1"/><stop offset=".524" style="stop-color:#f9b358;stop-opacity:1"/><stop offset=".546" style="stop-color:#ca7607;stop-opacity:1"/><stop offset=".677" style="stop-color:#ca7607;stop-opacity:1"/><stop offset=".691" style="stop-color:#f9b358;stop-opacity:1"/><stop offset=".719" style="stop-color:#ca7607;stop-opacity:1"/><stop offset=".811" style="stop-color:#ca7607;stop-opacity:1"/><stop offset=".844" style="stop-color:#f9b358;stop-opacity:1"/><stop offset=".861" style="stop-color:#ca7607;stop-opacity:1"/><stop offset=".956" style="stop-color:#ca7607;stop-opacity:1"/><stop offset=".986" style="stop-color:#f9b458;stop-opacity:1"/><stop offset="1" style="stop-color:#ca7607;stop-opacity:1"/></linearGradient><linearGradient xlink:href="#a" id="b" x1="137.343" x2="249.343" y1="64.142" y2="64.142" gradientTransform="translate(-129.343 1.858)" gradientUnits="userSpaceOnUse"/></defs><path fill="#f9aa40" d="M8 20v92a4 4 0 0 0 4 4h12a4 4 0 0 0 4-4V36h4c2.21 0 5.82-.08 7.972.399q6.24 1.39 7.63 7.63C48.082 46.18 48 49.79 48 52V112a4 4 0 0 0 4 4h12a4 4 0 0 0 4-4v-12h16v12a4 4 0 0 0 4 4h12a4 4 0 0 0 4-4v-12h12a4 4 0 0 0 4-4v-8a4 4 0 0 0-4-4h-12V68a4 4 0 0 0-4-4H88a4 4 0 0 0-4 4v16H68V52c0-2.21.023-5.798-.245-7.99C66.138 30.795 56.678 18.5 43.981 16.338 41.806 15.967 38.21 16 36 16H12a4 4 0 0 0-4 4" style="fill:url(#b);stroke-width:.999996"/><path fill="#f9aa40" d="M8 16v92a4 4 0 0 0 4 4h12a4 4 0 0 0 4-4V32h4c2.21 0 5.82-.08 7.972.399q6.24 1.39 7.63 7.63C48.082 42.18 48 45.79 48 48V108a4 4 0 0 0 4 4h12a4 4 0 0 0 4-4V96h16v12a4 4 0 0 0 4 4h12a4 4 0 0 0 4-4V96h12a4 4 0 0 0 4-4v-8a4 4 0 0 0-4-4h-12V64a4 4 0 0 0-4-4H88a4 4 0 0 0-4 4v16H68V48c0-2.21.023-5.798-.245-7.99C66.138 26.795 56.678 14.5 43.981 12.338 41.806 11.967 38.21 12 36 12H12a4 4 0 0 0-4 4" style="stroke-width:.999996"/></svg>
